X:1
T:Title
%%score { ( 1 3 ) | ( 2 4 ) }
L:1/8
M:4/4
K:Bb
V:1 treble nm="Grand Piano"
V:3 treble 
V:2 bass 
V:4 bass 
V:1
 z4 z2[Q:1/4=100] F2 | [DB]2 [_DA]>G FF=DF | [DB]2 [_DA]2 [B,=DF]2 B>G | z2 A4 z2 | z2 B4 z2 | %5
 [DB]2 [_DA]2 .[B,=DF]2 .[F,D]2 | [DB]2 [_DA]2 [B,=DF]2 z2 | z2 c4 z2 | [Fc]4 [A,F]2 z2 | %9
 [ce]>d [Ac]>B [FA]2 [EG]2 | [DF]2 [CE]2 [B,D]4 | [D^Fd]>c [DGB]>A [B,DG]2 [G,DF]2 | %12
 [G,CE]2 D2 [G,B,C]4 | [Ac]>B [FA]>G F2 [FA]2 | [FB]2 c2 d2 D>E | F4 c4 |[M:3/4] [DB]6 |] %17
V:2
 z8 | .[B,,F,]2 .[B,,G,]2 [B,,B,]D .[B,,F,]2 | .[B,,F,]2 .[B,,G,]>G B,,2 z2 | %3
 z2 [F,CE]>[F,C] [F,C][F,C] z2 | z2 [B,,F,]>[B,,F,] [B,,F,][B,,F,] z2 | %5
 .[B,,F,]2 .[B,,G,]>G B,,FB,,F | .[B,,F,]2 .[B,,G,]>G B,,2[K:treble] B>G | %7
 A2[K:bass] [C,A,]>[C,A,] [C,A,][C,A,] [C,B,]>[C,B,] | [F,A,]4 F,2 z2 | %9
 z z/[K:treble] B/ z z/ G/[K:bass] F,,2 F,2 | F,,>G,, A,,>F,, B,,>F,, D,,>B,,, | %11
 D,,>^F,, G,,>A,, B,,2 =B,,2 | C,2 D,2 E,2 =E,2 | z z/ G/ z z/ E/ [F,B,D]2 [E,C]2 | %14
 [D,B,]2[K:treble] [F,A,F]2 [B,F]2[K:bass] D,>E, | z4 E4 |[M:3/4] [B,,F,]6 |] %17
V:3
 x8 | x8 | x8 | A2 z z/ E/ EE c>A | B2 D>D DD F2 | x8 | x8 | z2 F>F FF [=Ed]>[Ec] | x8 | x8 | x8 | %11
 x8 | x8 | x8 | x8 | x8 |[M:3/4] x6 |] %17
V:4
 x8 | x8 | x8 | x8 | x8 | x8 | x6[K:treble] x2 | x2[K:bass] x6 | x8 | %9
 F,,2[K:treble] F,2[K:bass] z4 | x8 | x8 | x8 | F,2 F,,2 z4 | x2[K:treble] x4[K:bass] x2 | F,8 | %16
[M:3/4] x6 |] %17

